findly-builder/apps/searchassist/src/assets/icons/txt_icon.svg

<svg width="30" height="39" viewBox="0 0 30 39" fill="none" xmlns="http://www.w3.org/2000/svg">
<path d="M30 10.8333V36.8333C30 38.0304 29.0411 39 27.8571 39H2.14286C0.958929 39 0 38.0304 0 36.8333V2.16667C0 0.969583 0.958929 0 2.14286 0H19.2857L30 10.8333Z" fill="#BDC1C6"/>
<path d="M19 0V8.8C19 10.0155 19.9845 11 21.2 11H30L19 0Z" fill="#9AA0A6"/>
<path d="M7.39773 18.8317H9.6456V25H10.9524V18.8317H13.2003V17.7273H7.39773V18.8317ZM14.9128 19.5455H13.5492L15.1685 22.2727L13.5066 25H14.8702L16.0137 23.0362L17.1678 25H18.5208L16.8482 22.2727L18.4924 19.5455H17.1323L16.0137 21.5589L14.9128 19.5455ZM22.2104 19.5455H21.1344V18.2386H19.8489V19.5455H19.0748V20.5398H19.8489V23.5724C19.8418 24.5987 20.5875 25.103 21.5534 25.0746C21.9192 25.0639 22.1713 24.9929 22.3098 24.9467L22.0932 23.9418C22.0222 23.9595 21.8766 23.9915 21.7168 23.9915C21.3936 23.9915 21.1344 23.8778 21.1344 23.3594V20.5398H22.2104V19.5455Z" fill="white"/>
</svg>

<svg width="30" height="39" fill="none" xmlns="http://www.w3.org/2000/svg"><path d="M30 10.833v26A2.154 2.154 0 0 1 27.857 39H2.143A2.154 2.154 0 0 1 0 36.833V2.167C0 .97.959 0 2.143 0h17.143L30 10.833Z" fill="#BDC1C6"/><path d="M19 0v8.8a2.2 2.2 0 0 0 2.2 2.2H30L19 0Z" fill="#9AA0A6"/><path d="M7.398 18.832h2.248V25h1.306v-6.168H13.2v-1.105H7.398v1.105Zm7.515.713h-1.364l1.62 2.728L13.506 25h1.363l1.144-1.964L17.168 25h1.353l-1.673-2.727 1.644-2.727h-1.36l-1.118 2.013-1.101-2.014Zm7.297 0h-1.076V18.24H19.85v1.306h-.774v.995h.774v3.032c-.007 1.027.738 1.531 1.704 1.503.366-.011.618-.082.757-.128l-.217-1.005c-.07.017-.216.05-.376.05-.323 0-.583-.114-.583-.633v-2.82h1.076v-.994Z" fill="#fff"/></svg>
